X:22
T: Die Geburt im Walde
N: Q0007H
O: Mitteleuropa, Deutschland (BRD) , Pfalz
N: Melodievergleich zu Q0007E.
R: Ballade, Geburt, Tod, Moral
M: 3/4
L: 1/8
K: G
D2 | G3FGB | A3GA2 | B3ABc | A2z2
GB | d3dde | d3cB2 | c2B2A2 | G2z2
GB | d3dde | d3cB2 | c2B2A2 | G2z2

@@@ Tune index: 651
